!!!OTL: ICH BIN EIN SCHREINER
!!!ARE: Europa, Mitteleuropa, Deutschland, Wetzlar, Schwalbach
!!!SCT: B0617
!!!YEM: Copyright 1995, estate of Helmut Schaffrath.
**kern
*ICvox
*Ivox
*M4/4
*k[]
*C:
{8E
8F
=1
4.G
8G
4G
4c
=2
4.G
8G
4G}
{4G
=3
4.F
8E
4F
4G
=4
2E
4r}
{4c
=5
4.c
8B
4A
4B
=6
4.c
8B
4A}
{4c
=7
4.d
8c
4B
4A
=8
2G
4r}
{4G
=9
4G
4B
4d
4c
=10
4B
4A
4G}
{4G
=11
4.F
8E
4F
4G
=12
2E
4r}
{4c
=13
4.c
8B
4A
4B
=14
4c
4B
4A}
{4c
=15
4.d
8c
4B
4A
=16
2G
4r}
{4G
=17
2.e
4c
=18
2.G
4G
=19
4.F
8E
4F
4G
=20
4E
4G
4c}
{4d
=21
2.e
4c
=22
2.G
4G
=23
4.F
8E
4F
4G
=24
2E
4r}
==
!!!AGN: Staende -, Handwerker - Lied, Schreiner
!!!ONB: ESAC (Essen Associative Code) Database: BOEHME
!!!AMT: simple quadruple
!!!AIN: vox
!!!EED: Helmut Schaffrath
!!!EEV: 1.0
*-
